X: 56
T:Palm Sunday
M:6/8
L:1/8
R:Double Jig
K:ADor
B[|:AGE G2E|G2E G2E|A2B c2d|e2d efg|!
e3 dBA|BAG Bcd|edc BAG|1B2A A2B:|2B2A A2e|!
|:~a3 efg|a^ga bge|~g3 gfe|dBA GBd|!
efg efe|dBG Bcd|edc BAG|1B2A A2e:|2B2A A2B|]!
